TGeo/prim_para_z.svg

<svg viewBox="-600 -400 1200 800" width="1200" height="800" xmlns="http://www.w3.org/2000/svg"><path style="fill:rgb(0,104,104)" d="M-17,-105l60,-239l-160,58Z"/><path style="fill:rgb(0,43,43)" d="M-17,-105l-100,-181l-22,444Z"/><path style="fill:rgb(0,153,153)" d="M-51,415l172,-120l46,-485Z"/><path style="fill:rgb(0,108,108)" d="M-17,-105l184,-85l-124,-154Z"/><path style="fill:rgb(0,44,44)" d="M-17,-105l-122,263l88,257Z"/><path style="fill:rgb(0,162,162)" d="M-51,415l218,-605l-184,85Z"/></svg>

<svg xmlns="http://www.w3.org/2000/svg" viewBox="-600 -400 1200 800" width="1200" height="800" style="background:rgb(255,255,255)"><path style="fill:rgb(0,104,104)" d="M-17,-105L43,-344L-117,-286z"/><path style="fill:rgb(0,43,43)" d="M-17,-105L-117,-286L-139,158z"/><path style="fill:rgb(0,153,153)" d="M-51,415L121,295L167,-190z"/><path style="fill:rgb(0,108,108)" d="M-17,-105L167,-190L43,-344z"/><path style="fill:rgb(0,44,44)" d="M-17,-105L-139,158L-51,415z"/><path style="fill:rgb(0,162,162)" d="M-51,415L167,-190L-17,-105z"/></svg>
